icons/1_Primary/YoYo Games.svg

<svg width="1024" height="1024" viewBox="0 0 1024 1024" fill="none" xmlns="http://www.w3.org/2000/svg">
<g clip-path="url(#clip0_2_4014)">
<path d="M512 1024C794.77 1024 1024 794.77 1024 512C1024 229.23 794.77 0 512 0C229.23 0 0 229.23 0 512C0 794.77 229.23 1024 512 1024Z" fill="#98DC9A"/>
<path d="M312.68 343.34C310.05 338.68 306.59 335.58 302.41 334.15C300.282 333.321 298.013 332.917 295.73 332.96H203L295.5 493.26L347.3 403C328.3 370.42 316.87 350.6 312.69 343.32L312.68 343.34ZM728.62 530.86L676.83 621C695.69 653.58 707.14 673.4 711.32 680.68C715.26 687.6 720.87 691.06 728.27 691.06H821L728.62 530.86ZM461 600.32L410 512.11L513.43 333H409.24L306.24 512.16C358.633 602.873 386.92 651.93 391.1 659.33C397.9 671.39 406.02 679.98 415.45 684.87C423.57 689.05 433.95 691.2 446.45 691.08C455.64 691.08 469.84 691.08 488.94 690.96L541.34 600.37L461 600.32ZM632.9 364.83C626.1 352.66 617.98 344.18 608.55 339.29C603.509 336.68 598.062 334.945 592.44 334.16C587.511 333.33 582.518 332.942 577.52 333C568.33 333 554.13 333.12 535.03 333.24L482.64 423.83H563L614 511.88L510.57 691H614.76C649.013 631.32 683.347 571.6 717.76 511.84C665.253 421.153 636.967 372.15 632.9 364.83Z" fill="white"/>
</g>
<defs>
<clipPath id="clip0_2_4014">
<rect width="1024" height="1024" fill="white"/>
</clipPath>
</defs>
</svg>

<svg width="1024" height="1024" fill="none" xmlns="http://www.w3.org/2000/svg"><g clip-path="url(#a)"><path d="M512 1024c282.77 0 512-229.23 512-512S794.77 0 512 0 0 229.23 0 512s229.23 512 512 512Z" fill="#98DC9A"/><path d="M312.68 343.34c-2.63-4.66-6.09-7.76-10.27-9.19a17.493 17.493 0 0 0-6.68-1.19H203l92.5 160.3L347.3 403c-19-32.58-30.43-52.4-34.61-59.68l-.01.02Zm415.94 187.52L676.83 621c18.86 32.58 30.31 52.4 34.49 59.68 3.94 6.92 9.55 10.38 16.95 10.38H821l-92.38-160.2ZM461 600.32l-51-88.21L513.43 333H409.24l-103 179.16c52.393 90.713 80.68 139.77 84.86 147.17 6.8 12.06 14.92 20.65 24.35 25.54 8.12 4.18 18.5 6.33 31 6.21 9.19 0 23.39 0 42.49-.12l52.4-90.59-80.34-.05Zm171.9-235.49c-6.8-12.17-14.92-20.65-24.35-25.54a50.109 50.109 0 0 0-16.11-5.13 83.98 83.98 0 0 0-14.92-1.16c-9.19 0-23.39.12-42.49.24l-52.39 90.59H563l51 88.05L510.57 691h104.19c34.253-59.68 68.587-119.4 103-179.16-52.507-90.687-80.793-139.69-84.86-147.01Z" fill="#fff"/></g><defs><clipPath id="a"><path fill="#fff" d="M0 0h1024v1024H0z"/></clipPath></defs></svg>
